X: 2094
T: 79th's Farewell To Gibraltar
B: nick
B: to learn
M:2/4
Q: 1/4=100
K:Amajor
V:1 
cd| e2>f2 e2c2| A2>B2 A2a2| f2ec efae| c2B2 B2cd|
 e2>f2 e2c2| A2>B2 A2a2| f2ec efae| c2A2 A2:|
 a2| f2ec efae| faec B2a2| f2ec efae|
 f2B2 B2a2| f2ec efae| faec B2a2| f2ec efae|
 c2A2 A2:| cB| A2>B2 c2a2| f2ec B2cB|
 ABcd efec| f2B2 B2cB| A2>B2 c2a2| f2ec B2a2|
 f2ec efae| c2A2 A2:| cd| e2>f2 e2c2|
 e2>f2 e2a2| f2>e2 f2a2| f2ed c2a2| f2ed c2BA|
 BABc e2a2| f2ec efae| c2A2 A2:|
% abcbook-tune_id 63455fbcefb7210ec6fed6b8
% abcbook-link-0 https://www.youtube.com/watch?v=JFuUkObf4d8
% abcbook-link-title-0 79th&#39;s Farewell to Gibraltar .Highland Division Band

% abcbook-boost 0
% abcbook-tablature 
% abcbook-transpose 
% abcbook-lastupdated 1666788190334
% abcbook-soundfonts 
% abcbook-repeats 3


